X:0453
T:"The Black Haired Darling" (1st Setting)  (air)  0453
C:Unattributed
C:airily
I:abc2nwc
B:O'Neill's Music Of Ireland (The 1850) Lyon & Healy, Chicago, 1903 edition
Z:FROM O'NEILL'S TO NOTEWORTHY, FROM NOTEWORTHY TO ABC, MIDI AND .TXT BY VINCE BRENNAN June 2003 (HTTP://WWW.SOSYOURMOM.COM)
M:6/8
L:1/8
K:D
"_vb"A/2A/2Bc ddg|f3/2(e/2f/2g/2) .f.e.d|cAg .f.e.d|(cA).d D2(D/2E/2)|
.F(.F/2.G/2.A/2.B/2) cAA|(~d3/2e/2f/2g/2) shakef.e.d|(c/2A3/2) ({A}G/2F/2) G3/2(B/2A/2G/2)|"^shake"(FD).D D3||
.d(d/2e/2f/2g/2) a2a|aag f2e|f/2f/2fg TRa2g|"^shake"(fe)f D2(D/2E/2)|
.F(.F/2.G/2.A/2.B/2) cAA|.d(.d/2.e/2.f/2.g/2) f3/2e/2d|(c/2A3/2) ({A}G/2F/2) G3/2(B/2A/2G/2)|"^shake"(FD).D D3|]
